www/assets/icons/generating_tokens.svg

<svg xmlns="http://www.w3.org/2000/svg" width="24" height="24" viewBox="0 0 24 24" fill='currentColor'><path d="M9 4c-4.42 0-8 3.58-8 8s3.58 8 8 8 8-3.58 8-8-3.58-8-8-8m3 6.5h-2v5H8v-5H6V9h6zm8.25-6.75L23 5l-2.75 1.25L19 9l-1.25-2.75L15 5l2.75-1.25L19 1zm0 14L23 19l-2.75 1.25L19 23l-1.25-2.75L15 19l2.75-1.25L19 15z"/></svg>

<svg width="24" height="24" viewBox="0 0 24 24" xmlns="http://www.w3.org/2000/svg" fill='currentColor'><path d="M9 4C4.58 4 1 7.58 1 12C1 16.42 4.58 20 9 20C13.42 20 17 16.42 17 12C17 7.58 13.42 4 9 4ZM12 10.5H10V15.5H8V10.5H6V9H12V10.5ZM20.25 3.75L23 5L20.25 6.25L19 9L17.75 6.25L15 5L17.75 3.75L19 1L20.25 3.75ZM20.25 17.75L23 19L20.25 20.25L19 23L17.75 20.25L15 19L17.75 17.75L19 15L20.25 17.75Z"/></svg>
